X: 267
T:J'ai vu le loup
M:4/4
L:1/8
Q:90
C:trad.
R:Branle
O:France
A:Bourgogne
Z:S. Piron
K:G
GF/2G/2|EFDE|EE:|
|EF|GG/2F/2GA|F2GF/2G/2|EEFF|DB,EF|GG/2F/2GA|F2GF/2G/2|EFDE|E2||
W:
W:J'ai vu le loup, le r'nard, le lièvre
W:J'ai vu le loup, le r'nard cheuler
W:C'est moi-même qui les ai r'beuillés
W:J'ai vu le loup, le r'nard, le lièvre
W:C'est moi-même qui les ai r'beuillés
W:J'ai vu le loup, le r'nard cheuler
W:
W:J'ai ouï le loup, le r'nard, le lièvre
W:J'ai ouï le loup, le r'nard chanter
W:C'est moi-même qui les ai r'chinés
W:J'ai vu le loup, le r'nard, le lièvre
W:C'est moi-même qui les ai r'chinés
W:J'ai ouï le loup, le r'nard chanter
W:
W:J'ai vu le loup, le r'nard, le lièvre
W:J'ai vu le loup, le r'nard danser
W:C'est moi-même qui les ai r'virés
W:J'ai vu le loup, le r'nard, le lièvre
W:C'est moi-même qui les ai r'virés
W:J'ai vu le loup, le r'nard danser
W:
W: From "Falaleiro" http://home.t-online.de/home/pheld/homepage.htm

